X:1
T: Miss Carole Stoker
C:Muriel A Johnstone
R:Reel
%Q: 232
K:A
M:4/4
L:1/8
|:e2|a2 ec Ae cA|dc BA GE FG|A2 cA F2 BA|GE FG A2 e2|
a2 ec Ae cA|dc BA GE FG|AA, CE FD FA|GE GB A2 ED|
CA, CE FD FA|GE GB AE Ac|dc BA GE FG|A2 GF E2 ED|
CA, CE FD FA|GE GB AB cd|e2 ce f2 ba|ge fg a2:|
